source/img/icon-signin-white.svg

<svg width="17" height="19" viewBox="0 0 17 19" fill="none" xmlns="http://www.w3.org/2000/svg">
<path d="M7.62845 13.7488L6.34455 12.4683L10.7628 8.06082C12.368 8.92384 14.4036 8.69754 15.7605 7.34627C17.4132 5.69549 17.4132 3.01896 15.7605 1.37048C14.1057 -0.280231 11.4222 -0.280231 9.76729 1.37048C8.4127 2.72182 8.18694 4.75467 9.05158 6.35354L0.353336 15.0317C-0.117779 15.501 -0.117779 16.2698 0.353336 16.739C0.823733 17.2083 1.59457 17.2083 2.06492 16.739L3.34863 18.0196C3.5852 18.2554 3.96814 18.2554 4.20452 18.0196L5.06041 17.166C5.29727 16.9302 5.29727 16.5481 5.06041 16.3123L3.77663 15.0317L4.63241 14.1755L5.91675 15.4585C6.15316 15.6943 6.53627 15.6943 6.77264 15.4585L7.62845 14.6049C7.86483 14.3666 7.86483 13.9872 7.62845 13.7488ZM11.4791 3.07792C12.1883 2.3705 13.3399 2.3705 14.0491 3.07792C14.7556 3.783 14.7556 4.93376 14.0491 5.63895C13.3399 6.34402 12.1883 6.34402 11.4791 5.63895C10.7721 4.93379 10.7721 3.78304 11.4791 3.07792Z" fill="white"/>
</svg>

<svg width="17" height="19" fill="none" xmlns="http://www.w3.org/2000/svg"><path d="M7.628 13.749l-1.283-1.28 4.418-4.408c1.605.863 3.64.637 4.998-.715a4.22 4.22 0 000-5.976 4.246 4.246 0 00-5.994 0c-1.354 1.352-1.58 3.385-.715 4.984L.353 15.032a1.208 1.208 0 101.712 1.707l1.284 1.28c.236.236.62.236.856 0l.855-.853a.602.602 0 000-.854l-1.283-1.28.855-.857 1.285 1.284c.236.235.62.235.856 0l.855-.854a.605.605 0 000-.856zM11.48 3.078a1.821 1.821 0 012.57 0 1.812 1.812 0 010 2.561c-.71.705-1.86.705-2.57 0a1.811 1.811 0 010-2.561z" fill="#fff"/></svg>
